dist/img/search-panel/arrow-back.svg

<svg width="26" height="26" viewBox="0 0 26 26" fill="none" xmlns="http://www.w3.org/2000/svg">
<path d="M14.9907 19.4042C14.8288 19.4047 14.6689 19.3711 14.5227 19.3057C14.3765 19.2403 14.2477 19.1448 14.1457 19.0263L8.91319 12.8986C8.75385 12.7159 8.66675 12.4867 8.66675 12.2501C8.66675 12.0136 8.75385 11.7844 8.91319 11.6016L14.3299 5.47392C14.5137 5.26536 14.778 5.1342 15.0644 5.1093C15.3509 5.0844 15.6361 5.1678 15.8574 5.34115C16.0786 5.51451 16.2177 5.76361 16.2441 6.03366C16.2705 6.30372 16.1821 6.5726 15.9982 6.78116L11.1557 12.2552L15.8357 17.7293C15.9682 17.8792 16.0523 18.0618 16.0782 18.2554C16.1041 18.4489 16.0706 18.6455 15.9817 18.8217C15.8928 18.9979 15.7522 19.1464 15.5766 19.2496C15.401 19.3528 15.1976 19.4065 14.9907 19.4042Z" fill="#2F2F2F"/>
</svg>

<svg width="26" height="26" viewBox="0 0 26 26" fill="none" xmlns="http://www.w3.org/2000/svg"><path d="M14.99 19.404a1.15 1.15 0 01-.467-.098 1.077 1.077 0 01-.377-.28L8.913 12.9a.986.986 0 01-.246-.649c0-.236.087-.466.246-.648l5.417-6.128a1.13 1.13 0 011.527-.133.984.984 0 01.14 1.44l-4.841 5.474 4.68 5.474a.97.97 0 01.146 1.092c-.09.177-.23.325-.405.429a1.133 1.133 0 01-.586.154z" fill="#2F2F2F"/></svg>
